assets/Leftwards hand/Medium/Flat/leftwards_hand_flat_medium.svg

<svg width="32" height="32" viewBox="0 0 32 32" fill="none" xmlns="http://www.w3.org/2000/svg">
<path d="M7.26562 25.1561C7.26562 23.8749 8.125 23.2108 8.125 23.2108H6.20312C5.16489 23.2108 4.23437 22.21 4.23437 21.1718C4.23437 19.2186 5.39062 18.8905 5.39062 18.8905C5.39062 18.8905 4.48437 18.8749 3.70312 18.7343C2.92187 18.5936 1.96875 17.6006 1.96875 16.5624C1.96875 14.6191 3.50781 13.8827 5.1875 14.0077C5.1875 14.0077 4.125 13.3593 4.125 11.953C4.125 10.9148 5.10938 9.46082 7.02344 9.63269L14.5781 9.99207C14.5781 9.99207 13.0114 8.95533 12.5 8.07792C11.9886 7.2005 12.0115 5.88774 12.7812 5.17172C13.6861 4.32991 15.1042 4.17691 15.9688 4.78102C18.5625 6.59351 21.9511 9.1661 23.5312 9.65607C27.5625 10.9061 29.9821 14.5624 29.9821 17.9686C29.9821 22.078 26.8841 26.3918 22.1094 26.7343L9.98437 27.4452C8.9375 27.5233 7.26562 26.7108 7.26562 25.1561Z" fill="#C68D7B"/>
<path fill-rule="evenodd" clip-rule="evenodd" d="M13 7.50012C12.5101 7.12519 12.2978 6.61789 12.2269 6.14258C12.0658 6.78691 12.1751 7.5203 12.5 8.07788C12.7218 8.45839 13.1421 8.86887 13.5469 9.21176L13.547 9.21196C13.8581 9.47541 14.1601 9.69895 14.356 9.83832L14.3586 9.84008C14.4336 9.89336 14.4927 9.93417 14.5307 9.96002L14.5387 9.96015L17.8078 12.1395C17.3682 12.8824 17 13.9164 17 15.0626C17 16.4809 17.5652 18.0386 19.1799 19.3842C19.392 19.5609 19.7073 19.5323 19.8841 19.3201C20.0609 19.108 20.0322 18.7927 19.8201 18.6159C18.4347 17.4615 18 16.1859 18 15.0626C18 14.1787 18.27 13.3694 18.5974 12.7731L18.8973 12.3036L18.9 12.3001C18.916 12.2788 18.9301 12.2564 18.9423 12.2332L19.173 11.8721C19.3259 11.6328 19.249 11.3144 19.0039 11.1711L16.9993 10.0001L17 10.0001L16.9451 9.96848L16.2544 9.56497C15.3092 9.00764 13.7165 8.04847 13 7.50012ZM12.5 13.0001H4.3467C4.63043 13.6238 5.09508 13.9475 5.17547 14.0001H12.5C12.7761 14.0001 13 13.7762 13 13.5001C13 13.224 12.7761 13.0001 12.5 13.0001ZM4.60089 14.0001H5.06311C4.90714 13.9924 4.75269 13.9923 4.60089 14.0001ZM2.41062 17.8165L11.5101 18.0001C11.7862 18.0056 12.0055 18.2339 11.9999 18.51C11.9943 18.7861 11.766 19.0054 11.4899 18.9999L4.84338 18.8658C4.5187 18.8444 4.09517 18.8053 3.70312 18.7347C3.25892 18.6547 2.75916 18.2992 2.41062 17.8165ZM7.80202 26.5324C8.628 26.4941 9.43324 26.4581 10.2234 26.4227L10.2254 26.4226C14.59 26.2273 18.4941 26.0527 22.8912 25.6222C27.0746 25.2126 29.2128 20.3796 29.9799 18.1583C29.8864 22.2097 26.8107 26.397 22.1094 26.7342L9.98439 27.4451C9.31189 27.4953 8.38147 27.178 7.80202 26.5324ZM4.34848 21.8084C4.49721 21.8626 4.69609 21.9216 4.96113 21.9797C6.83023 22.39 13.4908 22.0898 13.4908 22.0898C13.7669 22.0847 13.9948 22.3044 13.9999 22.5804C14.005 22.8565 13.7853 23.0845 13.5092 23.0896L6.92616 23.2111H6.20314C5.38157 23.2111 4.62745 22.5844 4.34848 21.8084Z" fill="#A9715F"/>
</svg>

<svg xmlns="http://www.w3.org/2000/svg" width="32" height="32" fill="none"><path fill="#C68D7B" d="M7.266 25.156c0-1.281.859-1.945.859-1.945H6.203c-1.038 0-1.969-1.001-1.969-2.04 0-1.952 1.157-2.28 1.157-2.28s-.907-.016-1.688-.157c-.781-.14-1.734-1.133-1.734-2.172 0-1.943 1.539-2.68 3.218-2.554 0 0-1.062-.649-1.062-2.055 0-1.038.984-2.492 2.898-2.32l7.555.36S13.011 8.954 12.5 8.077c-.511-.877-.489-2.19.281-2.906.905-.842 2.323-.995 3.188-.391 2.594 1.813 5.982 4.385 7.562 4.875 4.032 1.25 6.451 4.906 6.451 8.313 0 4.109-3.098 8.423-7.873 8.765l-12.125.711c-1.046.078-2.718-.734-2.718-2.289Z"/><path fill="#A9715F" fill-rule="evenodd" d="M13 7.5c-.49-.375-.702-.882-.773-1.357a2.673 2.673 0 0 0 .273 1.935c.222.38.642.79 1.047 1.134.311.263.613.487.809.626l.003.002.172.12h.008l3.269 2.18A5.846 5.846 0 0 0 17 15.063c0 1.418.565 2.976 2.18 4.321a.5.5 0 0 0 .64-.768c-1.385-1.154-1.82-2.43-1.82-3.553 0-.884.27-1.694.597-2.29l.3-.47.003-.003a.495.495 0 0 0 .042-.067l.231-.36a.5.5 0 0 0-.17-.702L17 10.001H17l-.055-.033-.69-.403C15.308 9.008 13.716 8.048 13 7.5Zm-.5 5.5H4.347c.283.624.748.947.828 1H12.5a.5.5 0 0 0 0-1Zm-7.9 1h.463a4.597 4.597 0 0 0-.462 0Zm-2.19 3.817 9.1.183a.5.5 0 1 1-.02 1l-6.647-.134c-.324-.022-.748-.06-1.14-.131-.444-.08-.944-.436-1.292-.918Zm5.392 8.715 2.421-.11h.002c4.365-.195 8.27-.37 12.666-.8 4.184-.41 6.322-5.242 7.089-7.464-.094 4.052-3.17 8.239-7.87 8.576l-12.126.711c-.672.05-1.603-.267-2.182-.913Zm-3.454-4.724c.15.055.348.114.613.172 1.87.41 8.53.11 8.53.11a.5.5 0 1 1 .018 1l-6.583.121h-.723c-.821 0-1.576-.627-1.855-1.403Z" clip-rule="evenodd"/></svg>
